X:1
T:Io v'amo anci
T:Io v'amo anci
T:Jhan Gero
T:Source : Trium vocum cantiones---Nürnberg---J.Petreius---1541. Editor : André Vierendeels (09/04/16).
T:Notes : Original clefs : C2, C4, F4 Editorial accidentals above the staff Note values have been halved
T:©
T:©
T:©
T:©
C:Jhan Gero
Z:©
%%score [ 1 2 3 ]
L:1/8
Q:1/4=96
M:2/2
K:C
V:1 treble-8 nm="Tenor 1" snm="T 1"
V:2 treble-8 nm="Tenor 2" snm="T 2"
V:3 bass nm="Bass" snm="B"
V:1
 z8 | e4 f4 | e4 c2 d2 | B2 c3 B A2- | A2 G2 A2 a2 | a2 g2 f4 | e4 z2 d2 | d2 c2 B4 | A4 e4 | %9
w: |Io v'a-|mo an- ci|v'a- do- * *|* * ro u-|ni- ca spe-|me, u-|ni- ca spe-|me di|
 g6 f2 | e2 f2 d4 | c4 e4 | e2 e2 e2 e2 | f4 e4- | e4 z4 | z4 A4 | c3 d e2 f2 | g6 f2 | e2 d4 c2 | %19
w: mia mi-|ser vi- *|ta, per|vo- stra gen- ti-|lez- za,|_|mi-|ti- ga- tri- ce|d'o- gn'as-|pra fie- *|
 d8 | B4 z2 e2 | g2 a2 g2 f2 | e2 d2 ^c2 f2- | f2 e4 d2 | e6 e2 | g2 a2 g2 f2 | e2 d2 c2 f2- | %27
w: rez-|za, et|chi- on- qu'e nai|e non co- gno-|* * sce|voi, et|chi- on- qu'e nai|e non co- gno-|
 f2 e4 d2 | e4 c4 | d2 d2 e4 | d3 c B4 | A4 c4 | d2 d2 e4 | d3 c B4 | A2 a4 a2 | g2 f2 g4 | %36
w: * * sce|voi, po-|tra ben di-||re, po-|tra ben di-||re, mi- se-|ro ch'io fu-|
 f2 a4 a2 | g2 f2 g4 |"^#" f8 |] %39
w: i, mi- se-|ro ch'io fu-|i.|
V:2
 E4 F4 | E2 A3 GAB | c2 B3 A A2- | A2 G2 A4 | z2 d2 d2 c2 | B4 A4 | z2 A2 A2 G2 | A4 E2 e2 | %8
w: Io v'a-|mo an- ci- * *|* v'a- * do-|* * ro|u- ni- ca|spe- me,|u- ni- ca|spe- me, u-|
 e2 d2 c2 B2- | B2 G2 A2 B2 |"^#" c2 A4 G2 | A4 c4 | c2 c2 B2 c2 | d4 ^c4 | E4 G2 A2 | %15
w: ni- ca spe- me|_ di mia mi-|ser vi- *|ta, per|vo- stra gen- ti-|lez- za,|mi- ti- ga-|
 B2 c2 d2 f2- | f2 e4 d2- | d2 c2 d2 A2- | AG F2 E4 | D2 A2 d4- | d2 e2 d2 c2 | B2 A2 c2 A2- | %22
w: tri- ce d'o- gn'as-|* pra fie-|* rez- * *||za, et chi-|* on- qu'e nai|e non co- gno-|
 AG F2 E2 D2 | A3 G F4 | E6 c2 | B2 A2 c2 A2- | AG F2 E2 F2 | A3 G F4 | E6 F2- | F2 G2 G2 A2 | %30
w: * * * * sce|voi, _ _|_ et|chi- on- qu'e nai|_ _ e non co-|gno- * sce|voi, po-|* tra ben di-|
 _B2 A4 G2 | A6 F2- | F2 G2 G2 A2 | _B2 A4 G2 | A2 c4 A2 | B2 d4 c2 | d2 A4 A2 |"^#" B2 d4 c2 | %38
w: |re, po-|* tra ben di-||re, mi- se-|ro ch'io fu-|i, mi- se-|ro ch'io fu-|
 d8 |] %39
w: i.|
V:3
 z8 | z8 | E,4 F,4 | E,4 C,2 D,2 | B,,4 A,,4 | E,4 z2 D,2 | D,2 C,2 B,,4 | A,,2 A,2 A,2 G,2 | %8
w: ||Io v'a-|mo u- ni-|ca spe-|me, u-|ni- ca spe-|me, u- ni- ca|
 F,4 E,4 | E,4 D,2 D,2 | C,2 D,2 B,,4 | A,,4 A,4 | A,2 A,2 G,2 A,2 | D,4 A,2 A,,2 | %14
w: spe- me|di mia mi-|ser vi- *|ta, per|vo- stra gen- ti-|lez- za, mi-|
 C,3 D, E,2 F,2 | G,2 F,4 D,2 | A,4 G,2 F,2 | E,4 D,2 D,2 | C,2 D,2 A,,4 | D,4 z2 D,2 | G,6 A,2 | %21
w: ti- ga- tri- ce|d'o- gn'as- pra|fie- rez- *|* za, fie-|* * rez-|za, et|chi- on-|
 G,2 F,2 E,2 D,2 | C,2 D,2 A,,2 D,2- | D,2 C,2 D,2 D,2 | G,6 A,2 | G,2 F,2 E,2 D,2 | %26
w: qu'e nai e non|co- gno- sce voi,|_ co- gno- sce|voi, et|chi- on- qu'e nai|
 C,2 D,2 A,,2 D,2- | D,2 C,2 D,4 | A,,8 | z4 C,4 | D,2 D,2 E,4 | A,,8 | D,4 C,4 | D,2 D,2 E,4 | %34
w: e non co- gno-|* * sce|voi,|po-|tra ben di-|re,|po- tra|ben di- *|
 A,,2 F,4 F,2 | E,2 D,2 E,4 | D,2 F,4 F,2 | E,2 D,2 E,4 | D,8 |] %39
w: re, mi- se-|ro ch'io fu-|i, mi- se-|ro ch'io fu-|i.|

